SVG_Azure_Grouped/Dynamics 365/Application Project Operations.svg

<?xml version="1.0" encoding="UTF-8" standalone="no"?>
<!-- Generated by Microsoft Visio, SVG Export Application Project Operations.svg Page-1 -->

<svg
   xmlns:dc="http://purl.org/dc/elements/1.1/"
   xmlns:cc="http://creativecommons.org/ns#"
   xmlns:rdf="http://www.w3.org/1999/02/22-rdf-syntax-ns#"
   xmlns:svg="http://www.w3.org/2000/svg"
   xmlns="http://www.w3.org/2000/svg"
   xmlns:sodipodi="http://sodipodi.sourceforge.net/DTD/sodipodi-0.dtd"
   xmlns:inkscape="http://www.inkscape.org/namespaces/inkscape"
   width="0.74619949in"
   height="0.78748274in"
   viewBox="0 0 53.726332 56.698898"
   xml:space="preserve"
   class="st6"
   version="1.1"
   id="svg68"
   sodipodi:docname="Application Project Operations.svg"
   style="font-size:12px;overflow:visible;color-interpolation-filters:sRGB;fill:none;fill-rule:evenodd;stroke-linecap:square;stroke-miterlimit:3"
   inkscape:version="0.92.5 (2060ec1f9f, 2020-04-08)"><metadata
   id="metadata72"><rdf:RDF><cc:Work
       rdf:about=""><dc:format>image/svg+xml</dc:format><dc:type
         rdf:resource="http://purl.org/dc/dcmitype/StillImage" /></cc:Work></rdf:RDF></metadata><sodipodi:namedview
   pagecolor="#ffffff"
   bordercolor="#666666"
   borderopacity="1"
   objecttolerance="10"
   gridtolerance="10"
   guidetolerance="10"
   inkscape:pageopacity="0"
   inkscape:pageshadow="2"
   inkscape:window-width="640"
   inkscape:window-height="480"
   id="namedview70"
   showgrid="false"
   inkscape:zoom="1.8365233"
   inkscape:cx="35.905404"
   inkscape:cy="18.900351"
   inkscape:window-x="0"
   inkscape:window-y="0"
   inkscape:window-maximized="0"
   inkscape:current-layer="svg68" />
	<style
   type="text/css"
   id="style2">
	<![CDATA[
		.st1 {fill:url(#grad0-7);stroke:none;stroke-linecap:butt;stroke-width:0.75}
		.st2 {fill:#000000;fill-opacity:0.24;stroke:none;stroke-linecap:butt;stroke-width:0.75}
		.st3 {fill:#000000;fill-opacity:0.32;stroke:none;stroke-linecap:butt;stroke-width:0.75}
		.st4 {fill:url(#grad0-15);stroke:none;stroke-linecap:butt;stroke-width:0.75}
		.st5 {fill:url(#grad0-23);stroke:none;stroke-linecap:butt;stroke-width:0.75}
		.st6 {fill:none;fill-rule:evenodd;font-size:12px;overflow:visible;stroke-linecap:square;stroke-miterlimit:3}
	]]>
	</style>

	<defs
   id="Patterns_And_Gradients">
		<linearGradient
   id="grad0-7"
   x1="0"
   y1="34.923065"
   x2="47.171691"
   y2="34.923065"
   gradientTransform="scale(0.85178206,1.1740092)"
   gradientUnits="userSpaceOnUse">
			<stop
   offset="0"
   stop-color="#922717"
   stop-opacity="1"
   id="stop4" />
			<stop
   offset="1"
   stop-color="#d83b01"
   stop-opacity="1"
   id="stop6" />
		</linearGradient>
		<linearGradient
   id="grad0-15"
   x1="0"
   y1="34.923065"
   x2="47.171691"
   y2="34.923065"
   gradientTransform="scale(0.85178206,1.1740092)"
   gradientUnits="userSpaceOnUse">
			<stop
   offset="0"
   stop-color="#f69b63"
   stop-opacity="1"
   id="stop9" />
			<stop
   offset="1"
   stop-color="#d83b01"
   stop-opacity="1"
   id="stop11" />
		</linearGradient>
		<linearGradient
   id="grad0-23"
   x1="0"
   y1="28.434395"
   x2="38.407239"
   y2="28.434395"
   gradientTransform="scale(0.69352184,1.4419157)"
   gradientUnits="userSpaceOnUse">
			<stop
   offset="0"
   stop-color="#f69b63"
   stop-opacity="1"
   id="stop14" />
			<stop
   offset="1"
   stop-color="#ffb685"
   stop-opacity="1"
   id="stop16" />
		</linearGradient>
	</defs>
	<g
   id="g66"
   transform="translate(-5.3859292,-5.6654)">
		<title
   id="title20">Page-1</title>
		<g
   id="group21264-1"
   transform="translate(5.38583,-34.0157)">
			<title
   id="title22">Application Project Operations.21264</title>
			<g
   id="group21265-2">
				<title
   id="title24">Sheet.21265</title>
				<g
   id="group21266-3">
					<title
   id="title26">Sheet.21266</title>
					<g
   id="shape21267-4"
   transform="translate(13.5465,-1.3189)">
						<title
   id="title28">Sheet.21267</title>
						<path
   d="M 0,43.65 C 0,42.19 1.15,41 2.57,41 h 19.87 c 0.89,0 1.71,0.48 2.18,1.25 l 15.17,25.04 c 0.52,0.86 0.52,1.94 0,2.8 L 24.68,95.13 c -0.47,0.77 -1.29,1.25 -2.18,1.25 H 2.57 C 1.15,96.38 0,95.19 0,93.73 Z"
   class="st1"
   id="path30"
   inkscape:connector-curvature="0"
   style="fill:url(#grad0-7);stroke:none;stroke-width:0.75;stroke-linecap:butt" />
					</g>
					<g
   id="shape21268-8"
   transform="translate(0,-1.06831)">
						<title
   id="title33">Sheet.21268</title>
						<path
   d="M 0,43.65 C 0,42.19 1.15,41 2.57,41 h 21.3 l 15.92,26.29 c 0.52,0.86 0.52,1.94 0,2.8 L 23.93,96.38 H 2.57 C 1.15,96.38 0,95.19 0,93.73 Z"
   class="st2"
   id="path35"
   inkscape:connector-curvature="0"
   style="fill:#000000;fill-opacity:0.23999999;stroke:none;stroke-width:0.75;stroke-linecap:butt" />
					</g>
					<g
   id="shape21269-10">
						<title
   id="title38">Sheet.21269</title>
						<path
   d="M 0,43.65 C 0,42.19 1.15,41 2.57,41 h 21.3 l 15.92,26.29 c 0.52,0.86 0.52,1.94 0,2.8 L 23.93,96.38 H 2.57 C 1.15,96.38 0,95.19 0,93.73 Z"
   class="st3"
   id="path40"
   inkscape:connector-curvature="0"
   style="fill:#000000;fill-opacity:0.31999996;stroke:none;stroke-width:0.75;stroke-linecap:butt" />
					</g>
					<g
   id="shape21270-12"
   transform="translate(0,-1.3189)">
						<title
   id="title43">Sheet.21270</title>
						<path
   d="M 0,43.65 C 0,42.19 1.15,41 2.57,41 h 21.3 l 15.92,26.29 c 0.52,0.86 0.52,1.94 0,2.8 L 23.93,96.38 H 2.57 C 1.15,96.38 0,95.19 0,93.73 Z"
   class="st4"
   id="path45"
   inkscape:connector-curvature="0"
   style="fill:url(#grad0-15);stroke:none;stroke-width:0.75;stroke-linecap:butt" />
					</g>
					<g
   id="shape21271-16">
						<title
   id="title48">Sheet.21271</title>
						<path
   d="M 0,43.65 C 0,42.19 1.15,41 2.57,41 h 7.75 l 15.93,26.29 c 0.51,0.86 0.52,1.94 0,2.8 L 10.38,96.38 H 2.57 C 1.15,96.38 0,95.19 0,93.73 Z"
   class="st3"
   id="path50"
   inkscape:connector-curvature="0"
   style="fill:#000000;fill-opacity:0.31999996;stroke:none;stroke-width:0.75;stroke-linecap:butt" />
					</g>
					<g
   id="shape21272-18"
   transform="translate(0,-1.06831)">
						<title
   id="title53">Sheet.21272</title>
						<path
   d="M 0,43.65 C 0,42.19 1.15,41 2.57,41 h 7.75 l 15.93,26.29 c 0.51,0.86 0.52,1.94 0,2.8 L 10.38,96.38 H 2.57 C 1.15,96.38 0,95.19 0,93.73 Z"
   class="st2"
   id="path55"
   inkscape:connector-curvature="0"
   style="fill:#000000;fill-opacity:0.23999999;stroke:none;stroke-width:0.75;stroke-linecap:butt" />
					</g>
					<g
   id="shape21273-20"
   transform="translate(0,-1.3189)">
						<title
   id="title58">Sheet.21273</title>
						<path
   d="M 0,43.65 C 0,42.19 1.15,41 2.57,41 h 7.75 l 15.93,26.29 c 0.51,0.86 0.52,1.94 0,2.8 L 10.38,96.38 H 2.57 C 1.15,96.38 0,95.19 0,93.73 Z"
   class="st5"
   id="path60"
   inkscape:connector-curvature="0"
   style="fill:url(#grad0-23);stroke:none;stroke-width:0.75;stroke-linecap:butt" />
					</g>
				</g>
			</g>
		</g>
	</g>
</svg>

<?xml version="1.0" encoding="UTF-8" standalone="no"?>
<!DOCTYPE svg PUBLIC "-//W3C//DTD SVG 1.1//EN" "http://www.w3.org/Graphics/SVG/1.1/DTD/svg11.dtd">
<!-- Generated by Microsoft Visio, SVG Export Application Project Operations.svg Page-1 -->
<svg xmlns="http://www.w3.org/2000/svg" xmlns:xlink="http://www.w3.org/1999/xlink" xmlns:ev="http://www.w3.org/2001/xml-events"
		width="0.897638in" height="1.33858in" viewBox="0 0 64.6299 96.378" xml:space="preserve" color-interpolation-filters="sRGB"
		class="st6">
	<style type="text/css">
	<![CDATA[
		.st1 {fill:url(#grad0-7);stroke:none;stroke-linecap:butt;stroke-width:0.75}
		.st2 {fill:#000000;fill-opacity:0.24;stroke:none;stroke-linecap:butt;stroke-width:0.75}
		.st3 {fill:#000000;fill-opacity:0.32;stroke:none;stroke-linecap:butt;stroke-width:0.75}
		.st4 {fill:url(#grad0-15);stroke:none;stroke-linecap:butt;stroke-width:0.75}
		.st5 {fill:url(#grad0-23);stroke:none;stroke-linecap:butt;stroke-width:0.75}
		.st6 {fill:none;fill-rule:evenodd;font-size:12px;overflow:visible;stroke-linecap:square;stroke-miterlimit:3}
	]]>
	</style>

	<defs id="Patterns_And_Gradients">
		<linearGradient id="grad0-7" x1="0" y1="0" x2="1" y2="0" gradientTransform="rotate(-145.44659277098 0.5 0.5)">
			<stop offset="0" stop-color="#922717" stop-opacity="1"/>
			<stop offset="1" stop-color="#d83b01" stop-opacity="1"/>
		</linearGradient>
		<linearGradient id="grad0-15" x1="0" y1="0" x2="1" y2="0" gradientTransform="rotate(30.083225582996 0.5 0.5)">
			<stop offset="0" stop-color="#f69b63" stop-opacity="1"/>
			<stop offset="1" stop-color="#d83b01" stop-opacity="1"/>
		</linearGradient>
		<linearGradient id="grad0-23" x1="0" y1="0" x2="1" y2="0" gradientTransform="rotate(-161.80661145049 0.5 0.5)">
			<stop offset="0" stop-color="#f69b63" stop-opacity="1"/>
			<stop offset="1" stop-color="#ffb685" stop-opacity="1"/>
		</linearGradient>
	</defs>
	<g>
		<title>Page-1</title>
		<g id="group20789-1" transform="translate(5.38583,-34.0157)">
			<title>Application Project Operations.20789</title>
			<g id="group20790-2">
				<title>Sheet.20790</title>
				<g id="group20791-3">
					<title>Sheet.20791</title>
					<g id="shape20792-4" transform="translate(13.5465,-1.3189)">
						<title>Sheet.20792</title>
						<path d="M0 43.65 C0 42.19 1.15 41 2.57 41 L22.44 41 C23.33 41 24.15 41.48 24.62 42.25 L39.79 67.29 C40.31
									 68.15 40.31 69.23 39.79 70.09 L24.68 95.13 C24.21 95.9 23.39 96.38 22.5 96.38 L2.57 96.38 C1.15
									 96.38 0 95.19 0 93.73 L0 43.65 Z" class="st1"/>
					</g>
					<g id="shape20793-8" transform="translate(-2.67786E-13,-1.06831)">
						<title>Sheet.20793</title>
						<path d="M0 43.65 C0 42.19 1.15 41 2.57 41 L23.87 41 L39.79 67.29 C40.31 68.15 40.31 69.23 39.79 70.09 L23.93
									 96.38 L2.57 96.38 C1.15 96.38 0 95.19 0 93.73 L0 43.65 Z" class="st2"/>
					</g>
					<g id="shape20794-10">
						<title>Sheet.20794</title>
						<path d="M0 43.65 C0 42.19 1.15 41 2.57 41 L23.87 41 L39.79 67.29 C40.31 68.15 40.31 69.23 39.79 70.09 L23.93
									 96.38 L2.57 96.38 C1.15 96.38 0 95.19 0 93.73 L0 43.65 Z" class="st3"/>
					</g>
					<g id="shape20795-12" transform="translate(-2.67786E-13,-1.3189)">
						<title>Sheet.20795</title>
						<path d="M0 43.65 C0 42.19 1.15 41 2.57 41 L23.87 41 L39.79 67.29 C40.31 68.15 40.31 69.23 39.79 70.09 L23.93
									 96.38 L2.57 96.38 C1.15 96.38 0 95.19 0 93.73 L0 43.65 Z" class="st4"/>
					</g>
					<g id="shape20796-16">
						<title>Sheet.20796</title>
						<path d="M0 43.65 C0 42.19 1.15 41 2.57 41 L10.32 41 L26.25 67.29 C26.76 68.15 26.77 69.23 26.25 70.09 L10.38
									 96.38 L2.57 96.38 C1.15 96.38 0 95.19 0 93.73 L0 43.65 Z" class="st3"/>
					</g>
					<g id="shape20797-18" transform="translate(0,-1.06831)">
						<title>Sheet.20797</title>
						<path d="M0 43.65 C0 42.19 1.15 41 2.57 41 L10.32 41 L26.25 67.29 C26.76 68.15 26.77 69.23 26.25 70.09 L10.38
									 96.38 L2.57 96.38 C1.15 96.38 0 95.19 0 93.73 L0 43.65 Z" class="st2"/>
					</g>
					<g id="shape20798-20" transform="translate(0,-1.3189)">
						<title>Sheet.20798</title>
						<path d="M0 43.65 C0 42.19 1.15 41 2.57 41 L10.32 41 L26.25 67.29 C26.76 68.15 26.77 69.23 26.25 70.09 L10.38
									 96.38 L2.57 96.38 C1.15 96.38 0 95.19 0 93.73 L0 43.65 Z" class="st5"/>
					</g>
				</g>
			</g>
		</g>
	</g>
</svg>
